!!!!SEGMENT: pl-sa--153-a-iv-3--001_anonim--msza-kirie.krn
!!!cenid: 17xx:1525
!!!COM: Anonim
!!!COM-rismID: pe30004985
!!!CDT:
!!!CNT:
!!!OPR: Msza
!!!OTL: Kirie
!!!OMV: 001
!!!PDT:
!!!AGN: Sacred; Mass
!!!SMS-siglum: PL-SA
!!!SMS-shelfmark: 153/A IV 3
!!!SMS-shelfwork: 001-001 M
!!!SMS-variant:
!!!SMS-altvar:
!!!NIFC-rismSourceID: 1001035513
!!!NIFC-islandoraID:
!!!URL-pdf-islandora:
!!!URL-scan: https://bc.bdsandomierz.pl/dlibra/publication/1539/edition/1507/content @EN{Scan in the Sandomierz Diocese Digital Library} @PL{Skany w portalu Cyfrowa Biblioteka Diecezjalna w Sandomierzu}
!!!ONB-nifc: UWAGA: części Mszy: 1. Kirie, 2. Gloria, 3. Patrem, 4. Sanctus, 5. Benedictus, 6. Agnus. Uwaga: kontynuacja partii b. fig na str. 22
!!!AIN: 1 bass 2 clrno 1 organ 1 soprn 2 violn
!!!key: D
**kern	**fba	**dynam	**kern	**dynam	**kern	**dynam	**kern	**text	**kern	**text	**dynam	**kern	**kern
*	*	*	*group3	*	*group3	*	*group2	*	*group2	*	*	*group1	*group1
*part7	*	*part7	*part6	*part6	*part5	*part5	*part4	*part4	*part3	*part3	*part3	*part2	*part1
*staff7	*	*	*staff6	*	*staff5	*	*staff4	*staff4	*staff3	*staff3	*	*staff2	*staff1
*I"Fundamento	*	*	*I"Violino Secundo	*	*I"Violino Primo	*	*I"Baſso	*	*I"Canto	*	*	*I"Clarino Secundo	*I"Clarino Primo
*I'org	*	*	*I'vl 2	*	*I'vl 1	*	*I'B	*	*I'S	*	*	*I'clno 2	*I'clno 1
*Iorgan	*	*	*Ivioln	*	*Ivioln	*	*Ibass	*	*Isoprn	*	*	*Iclrno	*Iclrno
*ICklav	*	*	*ICstr	*	*ICstr	*	*ICvox	*	*ICvox	*	*	*ICbras	*ICbras
*IGcont	*	*	*	*	*	*	*	*	*	*	*	*	*
*clefF4	*	*	*clefG2	*	*clefG2	*	*clefF4	*	*clefC1	*	*	*clefG2	*clefG2
*	*	*	*	*	*	*	*	*	*	*	*	*ITrd-1c-2	*ITrd-1c-2
*k[f#c#]	*	*	*k[f#c#]	*	*k[f#c#]	*	*k[c#f#]	*	*k[f#c#]	*	*	*k[f#c#]	*k[f#c#]
*D:	*	*	*D:	*	*D:	*	*D:	*	*D:	*	*	*D:	*D:
*M4/4	*	*	*M4/4	*	*M4/4	*	*M4/4	*	*M4/4	*	*	*M4/4	*M4/4
*met(c)	*	*	*met(c)	*	*met(c)	*	*met(c)	*	*met(c)	*	*	*met(c)	*met(c)
=1	=1	=1	=1	=1	=1	=1	=1	=1	=1	=1	=1	=1	=1
!LO:TX:b:t=kirie	!	!	!LO:TX:b:t=kirie	!	!LO:TX:b:t=kirie	!	!	!	!LO:TX:t=P:problem=znaki f# a#	!	!	!	!LO:TX:b:t=kirie
!LO:TX:a:t=Adagio	!	!	!LO:TX:a:t=adagio	!	!LO:TX:a:t=Adagio	!	!	!	!LO:TX:a:t=Adagio	!	!	!	!LO:TX:a:t=Adagio
4.D/	.	.	4.dd\	.	4.ff# 4.a 4.d/	.	4.d\	ki-	4.ff#\	Ki-	.	4.ff#\	4.aa\
8D/	.	.	8dd\	.	8ff# 8a 8d/	.	8d\	-ri-	8ff#\	-ri-	.	8ff#\	8aa\
*	*	*	*2\right	*	*	*	*2\right	*	*2\right	*	*	*2\right	*2\right
2D/	.	.	2dd\	.	2ff# 2a 2d/	.	2d\	-e	2ff#\	-e	.	2ff#\	2aa\
=2	=2	=2	=2	=2	=2	=2	=2	=2	=2	=2	=2	=2	=2
4r;	.	.	4r;	.	4r;	.	4r;	.	4r;	.	.	4r;	4r;
*	*	*	*	*	*2\right	*	*	*	*	*	*	*	*
4d\	.	.	4ff#\	.	2aa\	.	4d\	e-	4ff#\	e-	.	4ff#\	4aa\
4c#\	6	.	4ee\	.	.	.	4c#\	-lei-	4ee\	-lei-	.	2ee\	4aa\
4A\	.	.	4cc#\	.	4gg\	.	4A\	.	4gg\	.	.	.	4gg\
=3	=3	=3	=3	=3	=3	=3	=3	=3	=3	=3	=3	=3	=3
4d\	.	.	2ddT\	.	2ff#t\	.	4d\	.	2ff#t\	.	.	2ddT\	2ff#t\
4G#X\	3	.	.	.	.	.	4G#X\	.	.	.	.	.	.
4A\	.	.	8cc#\L	.	8ee\L	.	4A\	-son	4ee\	-son	.	4a/	4ee\
.	.	.	8cc#\	.	8ee\	.	.	.	.	.	.	.	.
4A\	.	.	8cc#\	.	8ee\	.	4A\	e-	4ee\	e-	.	4r	4r
.	.	.	8cc#\J	.	8ee\J	.	.	.	.	.	.	.	.
=4	=4	=4	=4	=4	=4	=4	=4	=4	=4	=4	=4	=4	=4
*2\right	*	*	*tremolo	*	*tremolo	*	*	*	*	*	*	*	*
2F#\	6	.	8a/L	.	8cc#\L	.	2F#\	-lei-	1cc#	-lei-	.	2r	8r
.	.	.	8a/	.	8cc#\	.	.	.	.	.	.	.	8a/L
.	.	.	8a/	.	8cc#\	.	.	.	.	.	.	.	8a/
.	.	.	8a/J	.	8cc#\J	.	.	.	.	.	.	.	8a/J
2C#/	6	.	8ee\L	.	8aa\L	.	2C#/	.	.	.	.	8r	4a/
.	.	.	8ee\	.	8aa\	.	.	.	.	.	.	8a/L	.
.	.	.	8ee\	.	8aa\	.	.	.	.	.	.	8a/	4r
.	.	.	8ee\J	.	8aa\J	.	.	.	.	.	.	8a/J	.
=5	=5	=5	=5	=5	=5	=5	=5	=5	=5	=5	=5	=5	=5
2D/	.	.	8ff#\L	.	8aa\L	.	2D\	.	2a\	.	.	4a/	8r
.	.	.	8ff#\	.	8aa\	.	.	.	.	.	.	.	16a/LL
.	.	.	.	.	.	.	.	.	.	.	.	.	16a/JJ
.	.	.	8ff#\	.	8aa\	.	.	.	.	.	.	4r	8a/L
.	.	.	8ff#\J	.	8aa\J	.	.	.	.	.	.	.	8a/J
*	*	*	*Xtremolo	*	*Xtremolo	*	*	*	*	*	*	*	*
2GG#X/	6 5	.	8dd\L	.	8bb\L	.	2GG#X/	.	2b\	.	.	8r	4ee\
.	.	.	8b\	.	8dd\	.	.	.	.	.	.	8ee\L	.
.	.	.	8b\	.	8dd\	.	.	.	.	.	.	8ee\	4r
.	.	.	8b\J	.	8dd\J	.	.	.	.	.	.	8ee\J	.
=6	=6	=6	=6	=6	=6	=6	=6	=6	=6	=6	=6	=6	=6
2AA/	.	.	8cc#\L	.	8aa\L	.	2AA/	.	1cc#	.	.	4ee\	4r
.	.	.	8a\	.	8cc#\	.	.	.	.	.	.	.	.
.	.	.	8a\	.	8cc#\	.	.	.	.	.	.	8r	8r
.	.	.	8a\J	.	8cc#\J	.	.	.	.	.	.	8a/	8ee\
!	!	!	!	!	!LO:TX:a:t=P:problem=mixed beam	!	!	!	!	!	!	!	!
2D#X\	3	.	8a/L	.	8ff#\L	.	2D#X\	.	.	.	.	2ff#t\	2aa\
.	.	.	8f#/	.	8a/	.	.	.	.	.	.	.	.
.	.	.	8f#/	.	8a/	.	.	.	.	.	.	.	.
.	.	.	8f#/J	.	8a/J	.	.	.	.	.	.	.	.
=7	=7	=7	=7	=7	=7	=7	=7	=7	=7	=7	=7	=7	=7
8E\	#	.	8e/L	.	8g#X/L	.	8E\	-son	8b\	-son	.	4ee\	4gg#X\
.	6 #	.	.	.	.	.	.	.	.	.	.	.	.
4e\	6 4	.	8g#X/	.	8b/	.	8e\	e-	8b\	e-	.	.	.
.	.	.	8a/	.	8cc#/	.	8e\L	-lei-	8cc#\L	-lei-	.	4r	4r
8d\	6	.	8b/J	.	8dd/J	.	8dn\J	.	8dd\J	.	.	.	.
8c#\L	6	.	8cc#\L	.	8ee\	.	8c#\	-son	4ee\	-son	.	2r	2r
8A\	.	.	8cc#\	.	4aa\	.	8A\	e-	.	.	.	.	.
8B\	.	.	8dd\	.	.	.	8B\L	-lei-	8r	.	.	.	.
8c#\J	.	.	8ee\J	.	8gg#X\	.	8c#\J	.	8ee\	e-	.	.	.
=8	=8	=8	=8	=8	=8	=8	=8	=8	=8	=8	=8	=8	=8
!	!	!	!LO:TX:a:t=P:problem=mixed beam	!	!	!	!	!	!	!	!	!	!
8d\L	.	.	8a/L	.	8ff#\L	.	8d\L	.	8ff#\L	-lei-	.	4r	4r
8G#X\	.	.	8b/	.	8ddd\	.	8G#X\	.	8b\	.	.	.	.
8A\	.	.	8e/	.	8ccc#\	.	8A\	.	8cc#\	.	.	8r	8r
8D\J	.	.	8ff#\J	.	8bb\J	.	8D#X\J	.	8dd\J	.	.	8ff#\	8aa\
4E\	#4r	.	4aa\	.	2bb\	.	2E\	.	4cc#\	.	.	2eeT\	4aa\
4EE/	.	.	4gg#X\	.	.	.	.	.	4bT\	.	.	.	4gg#Xt\
!	!	!	!	!	!	!	!LO:LB:g=original	!	!	!	!	!	!
=9	=9	=9	=9	=9	=9	=9	=9	=9	=9	=9	=9	=9	=9
4AA/	.	.	8aa\L	.	8aa\L	.	4AA/	-son	4a\	-son	.	8ee\L	8aa\L
.	.	.	8cc#\	.	8ee\	.	.	.	.	.	.	8a\	8ee\
4r	.	.	8dd\	.	8ff#\	.	4r	.	4r	.	.	8dd\	8ff#\
.	.	.	8ee\J	.	8ggn\J	.	.	.	.	.	.	8ee\J	8ggn\J
8r	.	.	4.ff#\	.	4.aa\	.	8r	.	4r	.	.	4.ff#\	4.aa\
8F#\L	6	.	.	.	.	.	8F#\	e-	.	.	.	.	.
8G\	.	.	.	.	.	.	8G\L	-lei-	8r	.	.	.	.
8A\J	3	.	8ee\	.	8gg\	.	8A\J	.	8cc#\	e-	.	8ee\	8gg\
=10	=10	=10	=10	=10	=10	=10	=10	=10	=10	=10	=10	=10	=10
4B\	6	.	4dd\	.	4ff#\	.	4B\	.	4dd\	-lei-	.	4dd\	4ff#\
4G\	6	.	4ee\	.	2gg\	.	4G\	.	2gg\	.	.	2ee\	2gg\
4C#/	6 5	.	4a/	.	.	.	4C#/	.	.	.	.	.	.
4D/	.	.	4a/	.	4ff#\	.	4D/	.	4ff#\	.	.	4dd\	4ff#\
!LO:LB:g=original	!	!	!	!	!LO:LB:g=original	!	!	!	!LO:LB:g=original	!	!	!	!
=11	=11	=11	=11	=11	=11	=11	=11	=11	=11	=11	=11	=11	=11
2GG#X/	#7	.	2ddT\	.	2ff#t\	.	2GG#X/	.	2ff#\	.	.	2ddT\	2ff#t\
2AA/	#	.	2cc#;\	.	2ee\;	.	2AA;/	-son	2ee\	-son	.	2a/	2ee\
!	!	!	!LO:LB:g=original	!	!	!	!	!	!	!	!	!LO:LB:g=original	!LO:LB:g=original
=12||;	=12||	=12||	=12||;	=12||	=12||	=12||	=12||	=12||	=12||;	=12||	=12||	=12||;	=12||;
*clefF4	*	*	*clefG2	*	*clefG2	*	*clefF4	*	*clefC1	*	*	*clefG2	*clefG2
*k[f#c#]	*	*	*k[f#c#]	*	*k[f#c#]	*	*k[f#c#]	*	*k[f#c#]	*	*	*k[f#c#]	*k[f#c#]
*M3/4	*	*	*M3/4	*	*M3/4	*	*M3/4	*	*M3/4	*	*	*M3/4	*M3/4
!LO:TX:b:t=Kirie	!	!	!LO:TX:b:t=kirie	!	!LO:TX:b:t=kirie	!	!	!	!LO:TX:t=P:problem=znaki f# cc#	!	!	!LO:TX:b:t=kirie	!LO:TX:b:t=kirie
!LO:TX:a:t=Allo	!	!	!LO:TX:a:t=Allo&colon;	!	!LO:TX:a:t=Allo.	!	!LO:TX:a:t=Allo&colon;	!	!	!	!	!LO:TX:a:t=Allo	!LO:TX:a:t=Allo&colon;
4D\	.	.	2a/	.	2a/	.	0.r	.	0.r	.	.	1.r	1.r
4F#\	.	.	.	.	.	.	.	.	.	.	.	.	.
.	.	.	16qqb/LL	.	16qqb/LL	.	.	.	.	.	.	.	.
.	.	.	16qqcc#/JJ	.	16qqcc#/JJ	.	.	.	.	.	.	.	.
4D\	.	.	4dd\	.	4dd\	.	.	.	.	.	.	.	.
=13	=13	=13	=13	=13	=13	=13	=13	=13	=13	=13	=13	=13	=13
.	.	.	(<8qqdd/	.	8qqdd/	.	.	.	.	.	.	.	.
4A\	.	.	2cc#\)	.	2cc#\	.	.	.	.	.	.	.	.
4AA/	.	.	.	.	.	.	.	.	.	.	.	.	.
4G\	.	.	4b\	.	4b\	.	.	.	.	.	.	.	.
=14	=14	=14	=14	=14	=14	=14	=14	=14	=14	=14	=14	=14	=14
4F#\	.	.	4a/	.	4a/	.	.	.	.	.	.	4r	2.r
4E\	6	.	(16g/KL	.	(16g/KL	.	.	.	.	.	.	4r	.
.	.	.	8.f#/J)	.	8.f#/J)	.	.	.	.	.	.	.	.
4D\	.	.	(16e/KL	.	(16e/KL	.	.	.	.	.	.	4a/	.
.	.	.	8.d/J)	.	8.d/J)	.	.	.	.	.	.	.	.
=15	=15	=15	=15	=15	=15	=15	=15	=15	=15	=15	=15	=15	=15
4A\	4	.	4dd\|	.	4ff#\	.	.	.	.	.	.	4dd\	4ff#\
.	3	.	.	.	.	.	.	.	.	.	.	.	.
4AA/	.	.	4cc#\|	.	4ee\	.	.	.	.	.	.	4a/	4ee\
4r	.	.	4r	.	4r	.	.	.	.	.	.	4r	4r
=16	=16	=16	=16	=16	=16	=16	=16	=16	=16	=16	=16	=16	=16
2B\	6	.	2dd\	.	4gg\	.	0.r	.	0.r	.	.	4r	4r
!	!	!	!	!	!LO:TUP:a:problem=klamra łukowa,kropka zamiast numeru	!	!	!	!	!	!	!	!
.	.	.	.	.	12bb\L	.	.	.	.	.	.	4r	4r
.	.	.	.	.	12aa\	.	.	.	.	.	.	.	.
.	.	.	.	.	12gg\J	.	.	.	.	.	.	.	.
!	!	!	!	!	!LO:TUP:a:problem=klamra łukowa,kropka zamiast numeru	!	!	!	!	!	!	!	!
4G\	.	.	4b\	.	12ff#\L	.	.	.	.	.	.	4ee\	4gg\
.	.	.	.	.	12ee\	.	.	.	.	.	.	.	.
.	.	.	.	.	12dd\J	.	.	.	.	.	.	.	.
=17	=17	=17	=17	=17	=17	=17	=17	=17	=17	=17	=17	=17	=17
.	.	.	8qqf#/	.	(<8qqdd/	.	.	.	.	.	.	.	8qqff#/
4E\	6_	.	2eT/	.	2cc#\)	.	.	.	.	.	.	2a/	2ee\
4A\	.	.	.	.	.	.	.	.	.	.	.	.	.
4D\	X	.	4f#/	.	4dd\	.	.	.	.	.	.	4dd\	4ff#\
=18	=18	=18	=18	=18	=18	=18	=18	=18	=18	=18	=18	=18	=18
!	!	!LO:DY:b:t=p&colon;	!	!	!	!LO:DY:a	!	!	!	!	!	!	!
2BB/	6	p	4r	.	4g/	p	.	.	.	.	.	1.r	1.r
!	!	!	!	!	!LO:TUP:b:problem=klamra łukowa,kropka zamiast numeru	!	!	!	!	!	!	!	!
.	.	.	4d/	.	12b/L	.	.	.	.	.	.	.	.
.	.	.	.	.	12a/	.	.	.	.	.	.	.	.
.	.	.	.	.	12g/J	.	.	.	.	.	.	.	.
!	!	!	!	!	!LO:TUP:b:problem=klamra łukowa,kropka zamiast numeru	!	!	!	!	!	!	!	!
4GG/	.	.	4B/	.	12f#/L	.	.	.	.	.	.	.	.
.	.	.	.	.	12e/	.	.	.	.	.	.	.	.
.	.	.	.	.	12d/J	.	.	.	.	.	.	.	.
=19	=19	=19	=19	=19	=19	=19	=19	=19	=19	=19	=19	=19	=19
.	.	.	.	.	8qqd/	.	.	.	.	.	.	.	.
4EE/	6	.	4A/	.	2c#/	.	.	.	.	.	.	.	.
4AA/	6	.	4e/	.	.	.	.	.	.	.	.	.	.
4DD/	6	.	4f#/	.	4d/	.	.	.	.	.	.	.	.
=20	=20	=20	=20	=20	=20	=20	=20	=20	=20	=20	=20	=20	=20
4BB/	6	.	4g#X/	.	4g#X/	.	0.r	.	1.r	.	.	2.r	4r
.	.	.	.	.	16qqb/LL	.	.	.	.	.	.	.	.
.	.	.	.	.	16qqcc#/JJ	.	.	.	.	.	.	.	.
4F#\	6	.	4a/	.	2dd\	.	.	.	.	.	.	.	4ee\
4G#X\	6	.	4b/	.	.	.	.	.	.	.	.	.	4ee\
=21	=21	=21	=21	=21	=21	=21	=21	=21	=21	=21	=21	=21	=21
!	!	!	!	!	!LO:TUP:a:problem=klamra łukowa,kropka zamiast numeru	!	!	!	!	!	!	!	!
4A\	.	.	4cc#\	.	12cc#\L	.	.	.	.	.	.	8a\L	8ee\L
.	.	.	.	.	12b\	.	.	.	.	.	.	.	.
.	.	.	.	.	.	.	.	.	.	.	.	8dd\J	8ff#\J
.	.	.	.	.	12a\J	.	.	.	.	.	.	.	.
4B\	.	.	4dd\	.	2ggn\	.	.	.	.	.	.	2eeT\	2ggT\
4c#\	.	.	4ee\	.	.	.	.	.	.	.	.	.	.
=22	=22	=22	=22	=22	=22	=22	=22	=22	=22	=22	=22	=22	=22
!	!	!	!	!	!LO:TUP:a:problem=klamra łukowa,kropka zamiast numeru	!	!	!	!	!	!	!	!LO:TUP:a:problem=klamra łukowa,kropka zamiast numeru
4d\	.	.	4dd\	.	12ff#\L	.	.	.	2.ryy	.	.	4dd\	12ff#\L
.	.	.	.	.	12ee\	.	.	.	.	.	.	.	12ee\
.	.	.	.	.	12dd\J	.	.	.	.	.	.	.	12dd\J
.	.	.	8qqdd/	.	.	.	.	.	.	.	.	.	.
4A\	6 4	.	2cc#t\	.	2eeT\	.	.	.	.	.	.	4a/	2eeT\
.	x 3	.	.	.	.	.	.	.	.	.	.	.	.
4AA/	.	.	.	.	.	.	.	.	.	.	.	4a/	.
=23	=23	=23	=23	=23	=23	=23	=23	=23	=23	=23	=23	=23	=23
!	!	!LO:DY:a:t=p&colon;	!	!	!	!	!	!	!	!	!	!	!
4D\	.	p	4dd\	.	4dd\	.	.	.	4r	.	.	4f#/	4dd\
4F#\	.	.	4r	.	4r	.	.	.	4a\	ki-	.	4r	4r
4D\	.	.	4r	.	4r	.	.	.	4dd\	-ri-	.	4r	4r
!	!	!	!	!	!LO:LB:g=original	!	!	!	!	!	!	!	!
=24	=24	=24	=24	=24	=24	=24	=24	=24	=24	=24	=24	=24	=24
.	.	.	.	.	.	.	.	.	8qqdd/	.	.	.	.
4A\	.	.	2.r	.	2.r	.	0.r	.	2cc#\	-e	.	0.r	0.r
4AA/	.	.	.	.	.	.	.	.	.	.	.	.	.
4G\	.	.	.	.	.	.	.	.	4b\	e-	.	.	.
!LO:LB:g=original	!	!	!	!	!	!	!	!	!	!	!	!	!
=25	=25	=25	=25	=25	=25	=25	=25	=25	=25	=25	=25	=25	=25
4F#\	.	.	4r	.	4r	.	.	.	4a\	-lei-	.	.	.
!	!	!	!	!LO:DY:a:t=p&colon;	!	!	!	!	!	!	!	!	!
4E\	.	.	4r	p	4r	.	.	.	(16g/KL	.	.	.	.
.	.	.	.	.	.	.	.	.	8.f#/)	.	.	.	.
!	!	!	!	!	!	!LO:DY:a:t=Pia	!	!	!	!	!	!	!
4D\	.	.	4a/	.	4a/	p	.	.	(16e/K	.	.	.	.
.	.	.	.	.	.	.	.	.	8.d/J)	.	.	.	.
=26	=26	=26	=26	=26	=26	=26	=26	=26	=26	=26	=26	=26	=26
4A\	.	.	4dd\|	.	4ff#\|	.	.	.	4ff#\	.	.	.	.
4AA/	.	.	4cc#\|	.	4ee\|	.	.	.	4ee\	-son	.	.	.
4r	.	.	4r	.	4r	.	.	.	4r	.	.	.	.
=27	=27	=27	=27	=27	=27	=27	=27	=27	=27	=27	=27	=27	=27
2B\	.	.	2g/	.	4dd\	.	.	.	4dd\	e-	.	.	.
!	!	!	!	!	!LO:TUP:a:problem=klamra łukowa,kropka zamiast numeru	!	!	!	!	!	!	!	!
.	.	.	.	.	12bb\L	.	.	.	8gg\L	.	.	.	.
.	.	.	.	.	12aa\	.	.	.	.	.	.	.	.
.	.	.	.	.	.	.	.	.	8ff#\	.	.	.	.
.	.	.	.	.	12gg\J	.	.	.	.	.	.	.	.
!	!	!	!	!	!LO:TUP:a:problem=klamra łukowa,kropka zamiast numeru	!	!	!	!	!	!	!	!
4G\	.	.	4b/	.	12ff#\L	.	.	.	8ee\	.	.	.	.
.	.	.	.	.	12ee\	.	.	.	.	.	.	.	.
.	.	.	.	.	.	.	.	.	8dd\J	.	.	.	.
.	.	.	.	.	12dd\J	.	.	.	.	.	.	.	.
=28	=28	=28	=28	=28	=28	=28	=28	=28	=28	=28	=28	=28	=28
4E\	.	.	4e/	.	(4cc#\	.	0.r	.	(4cc#\	-lei-	.	0.r	0.r
4F#\	.	.	4a/	.	4dd\)	.	.	.	4dd\)	.	.	.	.
4D\	.	.	4f#/	.	4a/	.	.	.	4a\	.	.	.	.
=29	=29	=29	=29	=29	=29	=29	=29	=29	=29	=29	=29	=29	=29
4E\	.	.	4e/	.	4g/	.	.	.	4g/	.	.	.	.
4A\	.	.	4d/	.	4f#/	.	.	.	4f#/	.	.	.	.
4AA/	.	.	4c#/	.	4e/	.	.	.	4e/	.	.	.	.
!	!	!	!LO:LB:g=original	!	!	!	!	!	!	!	!	!	!
=30	=30	=30	=30	=30	=30	=30	=30	=30	=30	=30	=30	=30	=30
4D\	.	.	4d/	.	4f#/	.	.	.	4f#/	.	.	.	.
.	.	.	.	.	8qqe/	.	.	.	8qqe/	.	.	.	.
4F#\	.	.	4a/	.	4d/	.	.	.	4d/	-son	.	.	.
4E\	.	.	4g/	.	4r	.	.	.	4r	.	.	.	.
!	!	!	!	!	!	!	!	!	!LO:LB:g=original	!	!	!	!
=31	=31	=31	=31	=31	=31	=31	=31	=31	=31	=31	=31	=31	=31
4D\	.	.	4f#/	.	4aa\	.	.	.	8r	.	.	.	.
.	.	.	.	.	.	.	.	.	8ff#\	e-	.	.	.
4r	.	.	4r	.	4r	.	.	.	8ee\L	-lei-	.	.	.
.	.	.	.	.	.	.	.	.	8dd\	.	.	.	.
4r	.	.	4ff#\	.	4r	.	.	.	8cc#\	.	.	.	.
.	.	.	.	.	.	.	.	.	8b\J	.	.	.	.
=32	=32	=32	=32	=32	=32	=32	=32	=32	=32	=32	=32	=32	=32
!	!	!	!	!	!	!	!	!	!LO:TUP:a:problem=klamra łukowa,kropka zamiast numeru	!	!	!	!
4C#/	.	.	4e/	.	4aa\	.	0.r	.	12cc#\L	.	.	0.r	0.r
.	.	.	.	.	.	.	.	.	12dd\	.	.	.	.
.	.	.	.	.	.	.	.	.	12ee\J	.	.	.	.
4r	.	.	4r	.	4r	.	.	.	8dd\L	.	.	.	.
.	.	.	.	.	.	.	.	.	8cc#\	.	.	.	.
4r	.	.	4ee\	.	4r	.	.	.	8b\	.	.	.	.
.	.	.	.	.	.	.	.	.	8a\J	.	.	.	.
=33	=33	=33	=33	=33	=33	=33	=33	=33	=33	=33	=33	=33	=33
4D/	.	.	4dd\	.	4ff#\	.	.	.	4f#/	.	.	.	.
4BB/	.	.	4f#/	.	4r	.	.	.	4b\	.	.	.	.
4D/	.	.	4f#/	.	4r	.	.	.	4a\	.	.	.	.
=34	=34	=34	=34	=34	=34	=34	=34	=34	=34	=34	=34	=34	=34
4E\	.	.	4e/	.	4b\	.	.	.	4g#X/	.	.	.	.
4F#\	.	.	4r	.	4r	.	.	.	[<2ee\	.	.	.	.
4G#X\	.	.	4r	.	4r	.	.	.	.	.	.	.	.
=35	=35	=35	=35	=35	=35	=35	=35	=35	=35	=35	=35	=35	=35
4A\	.	.	1.r	.	1.r	.	.	.	8ee\L]	.	.	.	.
.	.	.	.	.	.	.	.	.	8cc#\	.	.	.	.
4B\	.	.	.	.	.	.	.	.	8dd\	.	.	.	.
.	.	.	.	.	.	.	.	.	8b\	.	.	.	.
4c#\	.	.	.	.	.	.	.	.	8cc#\	.	.	.	.
.	.	.	.	.	.	.	.	.	8a\J	.	.	.	.
=36	=36	=36	=36	=36	=36	=36	=36	=36	=36	=36	=36	=36	=36
!	!	!	!	!	!	!	!	!	!LO:TUP:a:problem=klamra łukowa,kropka zamiast numeru	!	!	!	!
4d\	.	.	.	.	.	.	0.r	.	12dd\L	.	.	2.r	2.r
.	.	.	.	.	.	.	.	.	12cc#\	.	.	.	.
.	.	.	.	.	.	.	.	.	12b\J	.	.	.	.
4e\	.	.	.	.	.	.	.	.	2b\	.	.	.	.
4E/	.	.	.	.	.	.	.	.	.	.	.	.	.
=37	=37	=37	=37	=37	=37	=37	=37	=37	=37	=37	=37	=37	=37
4A\	.	.	8r	.	8r	.	.	.	4a\	-son	.	4r	4r
.	.	.	8cc#\L	.	8ee\L	.	.	.	.	.	.	.	.
4r	.	.	8dd\	.	8ff#\	.	.	.	4r	.	.	4r	4r
.	.	.	8ee\	.	8gg\	.	.	.	.	.	.	.	.
!	!	!LO:DY:a	!	!	!	!	!	!	!	!	!	!	!
4F#\	.	f	8ff#\	.	8aa\	.	.	.	4r	.	.	4ff#\	[4aa\
.	.	.	8a\J	.	8cc#\J	.	.	.	.	.	.	.	.
=38	=38	=38	=38	=38	=38	=38	=38	=38	=38	=38	=38	=38	=38
!	!	!	!LO:TX:a:t=P:problem=mixed beam	!	!	!	!	!	!	!	!	!	!
4B\	.	.	8b\L	.	8dd\L	.	.	.	0.r	.	.	2ff#\	2aa\]
.	.	.	8b\	.	8dd\	.	.	.	.	.	.	.	.
4r	.	.	8cc#\	.	8ee\	.	.	.	.	.	.	.	.
.	.	.	8dd\	.	8ff#\	.	.	.	.	.	.	.	.
4E\	.	.	8ee\	.	8gg\	.	.	.	.	.	.	[4ee\	4gg\
.	.	.	8g/J	.	8b\J	.	.	.	.	.	.	.	.
=39	=39	=39	=39	=39	=39	=39	=39	=39	=39	=39	=39	=39	=39
!	!	!	!LO:TX:a:t=P:problem=mixed beam	!	!	!	!	!	!	!	!	!	!
4A\	.	.	8a\L	.	8cc#\L	.	.	.	.	.	.	2ee\]	2gg\
.	.	.	8a\	.	8cc#\	.	.	.	.	.	.	.	.
4r	.	.	8b\	.	8dd\	.	.	.	.	.	.	.	.
.	.	.	8cc#\	.	8ee\	.	.	.	.	.	.	.	.
4D\	.	.	8dd\	.	8ff#\	.	.	.	.	.	.	4dd\	4ff#\
.	.	.	8f#/J	.	8a\J	.	.	.	.	.	.	.	.
=40	=40	=40	=40	=40	=40	=40	=40	=40	=40	=40	=40	=40	=40
4G\	6	.	4g/	.	4b\	.	0.r	.	.	.	.	4r	8ee\L
.	.	.	.	.	.	.	.	.	.	.	.	.	8ff#\J
4E\	.	.	2ee\	.	[2gg\	.	.	.	.	.	.	4r	[2ggT\
4G\	.	.	.	.	.	.	.	.	.	.	.	[4ee\	.
!LO:LB:g=original	!	!	!	!	!LO:LB:g=original	!	!	!	!	!	!	!	!
=41	=41	=41	=41	=41	=41	=41	=41	=41	=41	=41	=41	=41	=41
2A\	.	.	8ee\L	.	8gg\L]	.	.	.	.	.	.	8ee\L]	8gg\L]
.	.	.	8cc#\	.	8ee\	.	.	.	.	.	.	8a\	8ee\
.	.	.	8dd\	.	8ff#\	.	.	.	.	.	.	8dd\	8ff#\
.	.	.	8cc#\	.	8ee\	.	.	.	.	.	.	8a\	8ee\
4G\	.	.	8dd\	.	8ff#\	.	.	.	.	.	.	8dd\	8ff#\
.	.	.	8ee\J	.	8gg\J	.	.	.	.	.	.	8ee\J	8gg\J
=42	=42	=42	=42	=42	=42	=42	=42	=42	=42	=42	=42	=42	=42
!	!	!	!	!	!LO:TUP:a:problem=klamra łukowa,kropka zamiast numeru	!	!	!	!	!	!	!	!
4F#\	.	.	4dd\	.	12aa\L	.	.	.	2.r	.	.	8dd/L	8ff#\L
.	.	.	.	.	12dd\	.	.	.	.	.	.	.	.
.	.	.	.	.	.	.	.	.	.	.	.	8a/	8ee\J
.	.	.	.	.	12ee\J	.	.	.	.	.	.	.	.
4G\	.	.	2cc#t\	.	2eeT\	.	.	.	.	.	.	8f#/	2eeT\
.	.	.	.	.	.	.	.	.	.	.	.	8d/	.
4A\	.	.	.	.	.	.	.	.	.	.	.	8a/	.
.	.	.	.	.	.	.	.	.	.	.	.	8a/J	.
!	!	!	!	!	!	!	!	!	!	!	!	!LO:LB:g=original	!LO:LB:g=original
=43	=43	=43	=43	=43	=43	=43	=43	=43	=43	=43	=43	=43	=43
!LO:TX:t=P:problem=nadmiarowy takt pauzy w B	!	!	!LO:TX:t=P:problem=nadmiarowy takt pauzy w B	!	!LO:TX:t=P:problem=nadmiarowy takt pauzy w B	!	!LO:TX:t=P:problem=nadmiarowy takt pauzy	!	!LO:TX:t=P:problem=nadmiarowy takt pauzy w B	!	!	!LO:TX:t=P:problem=nadmiarowy takt pauzy w B	!LO:TX:t=P:problem=nadmiarowy takt pauzy w B
2.ryy	.	.	2.ryy	.	2.ryy	.	.	.	2.ryy	.	.	2.ryy	2.ryy
=44	=44	=44	=44	=44	=44	=44	=44	=44	=44	=44	=44	=44	=44
!LO:TX:a:t=Tutti	!	!	!LO:TX:a:i:t=Tutti	!	!	!	!	!	!	!	!	!	!
4D\	.	.	4dd\	.	4dd\	.	(4D\	ki-	4r	.	.	4f#/	4dd\
4F#\	.	.	4a/	.	4aa\	.	4F#\)	.	4ff#\	ki-	.	4r	4r
4D\	.	.	4ff#\	.	4ddd\	.	4D\	-ri-	4ff#\	-ri-	.	4dd\	4ff#\
=45	=45	=45	=45	=45	=45	=45	=45	=45	=45	=45	=45	=45	=45
.	.	.	.	.	8qqddd/	.	.	.	.	.	.	.	8qqff#/
4A\	.	.	2ee\	.	2ccc#\	.	2A\	-e	2ee\	-e	.	2a/	2ee\
4AA/	.	.	.	.	.	.	.	.	.	.	.	.	.
4G\	.	.	[4dd\	.	4bb\	.	4G\	e-	4ee\	e-	.	[4dd\	4bb\
=46	=46	=46	=46	=46	=46	=46	=46	=46	=46	=46	=46	=46	=46
4F#\	.	.	4dd\]	.	4aa\	.	4F#\	-lei-	4dd\	-lei-	.	8dd/L]	4aa\
.	.	.	.	.	.	.	.	.	.	.	.	8a/J	.
4E\	.	.	4cc#\	.	(16gg\KL	.	4E\	.	4cc#\	.	.	8a/L	(16gg\KL
.	.	.	.	.	8.ff#\)	.	.	.	.	.	.	.	8.ff#\)
.	.	.	.	.	.	.	.	.	.	.	.	8f#/	.
4D\	.	.	4dd\	.	(16ee\K	.	4D\	.	4dd\	.	.	8f#/	(16ee\K
.	.	.	.	.	8.dd\J)	.	.	.	.	.	.	.	8.dd\J)
.	.	.	.	.	.	.	.	.	.	.	.	8d/J	.
=47	=47	=47	=47	=47	=47	=47	=47	=47	=47	=47	=47	=47	=47
4A\	4	.	4dd\|	.	4ff#\|	.	4A\	.	4ff#\	.	.	4dd\	4ff#\
.	3	.	.	.	.	.	.	.	.	.	.	.	.
4AA/	.	.	4cc#\|	.	4ee\|	.	4AA/	-son	4ee\	-son	.	4a/	4ee\
4r	.	.	4r	.	4r	.	4r	.	4r	.	.	4r	4r
!	!	!	!	!	!	!	!	!	!LO:LB:g=original	!	!	!	!
=48	=48	=48	=48	=48	=48	=48	=48	=48	=48	=48	=48	=48	=48
4B\	.	.	4.dd\	.	4dd\	.	[4B\	e-	4dd\	e-	.	0.r	0.r
8B\L	6	.	.	.	[<2gg\	.	8B\L]	.	8dd\L	-lei-	.	.	.
8G\	.	.	8b\L	.	.	.	8G\	-lei-	8b\	.	.	.	.
8A\	.	.	8cc#\	.	.	.	8A\	.	8cc#\	.	.	.	.
8B\J	.	.	8dd\J	.	.	.	8B\J	.	8dd\J	.	.	.	.
=49	=49	=49	=49	=49	=49	=49	=49	=49	=49	=49	=49	=49	=49
4A\	7	.	4.cc#\	.	4gg\]	.	[4A\	.	8cc#\L	.	.	.	.
.	.	.	.	.	.	.	.	.	8a\J	.	.	.	.
8A\L	6_	.	.	.	[<2ff#\	.	8A\L]	.	[<2ff#\	.	.	.	.
8F#\	x 3	.	8a\L	.	.	.	8F#\	.	.	.	.	.	.
8G\	x 3	.	8b\	.	.	.	8G\	.	.	.	.	.	.
8A\J	x 3	.	8cc#\J	.	.	.	8A\J	.	.	.	.	.	.
!	!	!	!	!	!	!	!LO:LB:g=original	!	!	!	!	!	!
=50	=50	=50	=50	=50	=50	=50	=50	=50	=50	=50	=50	=50	=50
4G\	7	.	4.b\	.	4ff#\]	.	[4G\	.	8ff#\L]	.	.	.	.
.	.	.	.	.	.	.	.	.	8a\	.	.	.	.
8G\L	6	.	.	.	[<2ee\	.	8G\L]	.	8b\	.	.	.	.
8E\	3	.	8g/L	.	.	.	8E\	.	8g\	.	.	.	.
8F#\	3	.	8a/	.	.	.	8F#\	.	8a\	.	.	.	.
8G\J	3	.	8b/J	.	.	.	8G\J	.	8b\J	.	.	.	.
!	!	!	!LO:LB:g=original	!	!	!	!	!	!	!	!	!	!
=51	=51	=51	=51	=51	=51	=51	=51	=51	=51	=51	=51	=51	=51
4F#\	7	.	4.a/	.	4ee\]	.	4.F#\	.	8a\L	.	.	.	.
.	.	.	.	.	.	.	.	.	8f#\J	.	.	.	.
8F#\L	6_	.	.	.	[<2dd\	.	.	.	(<2ee\	.	.	.	.
8D\	x 3	.	8f#/L	.	.	.	8D\L	.	.	.	.	.	.
8E\	x 3	.	8g/	.	.	.	8E\	.	.	.	.	.	.
8F#\J	x 3	.	8a/J	.	.	.	8F#\J	.	.	.	.	.	.
=52	=52	=52	=52	=52	=52	=52	=52	=52	=52	=52	=52	=52	=52
2E\	7	.	2g/	.	4dd\]	.	2E\	.	4dd\)	.	.	0.r	0.r
.	6	.	.	.	4cc#\	.	.	.	4cc#\	.	.	.	.
4D\	.	.	4a/	.	4ff#\	.	4D\	.	4a\	.	.	.	.
=53	=53	=53	=53	=53	=53	=53	=53	=53	=53	=53	=53	=53	=53
4A\	6 4	.	4dd\	.	4ff#\	.	4A\	.	4ff#\	.	.	.	.
.	5 3	.	.	.	.	.	.	.	.	.	.	.	.
8AA/L	.	.	4cc#\	.	4ee\	.	4AA/	-son	4ee\	-son	.	.	.
8BB/	.	.	.	.	.	.	.	.	.	.	.	.	.
8C#/	.	.	4c#/	.	4e/	.	4C#/	e-	4a\	e-	.	.	.
8AA/J	.	.	.	.	.	.	.	.	.	.	.	.	.
=54	=54	=54	=54	=54	=54	=54	=54	=54	=54	=54	=54	=54	=54
4.D/	.	.	16d/LL	.	4f#/	.	4.D/	-lei-	8a\L	.	.	.	.
.	.	.	16a/	.	.	.	.	.	.	.	.	.	.
.	.	.	16g#X/	.	.	.	.	.	16g#X\L	.	.	.	.
.	.	.	16a/JJ	.	.	.	.	.	16a\JJ	.	.	.	.
!	!	!	!	!	!LO:TUP:a:problem=klamra łukowa,kropka zamiast numeru	!	!	!	!	!	!	!	!
.	.	.	8b/L	.	12ff#\L	.	.	.	[<2b\	.	.	.	.
.	.	.	.	.	12ee\	.	.	.	.	.	.	.	.
8BB/L	.	.	8d/	.	.	.	8BB/L	.	.	.	.	.	.
.	.	.	.	.	12dd\J	.	.	.	.	.	.	.	.
!	!	!	!	!	!LO:TUP:a:problem=klamra łukowa,kropka zamiast numeru	!	!	!	!	!	!	!	!
8C#/	.	.	8e/	.	12cc#\L	.	8C#/	.	.	.	.	.	.
.	.	.	.	.	12b\	.	.	.	.	.	.	.	.
8D/J	.	.	8f#/J	.	.	.	8D/J	.	.	.	.	.	.
.	.	.	.	.	12a\J	.	.	.	.	.	.	.	.
=55	=55	=55	=55	=55	=55	=55	=55	=55	=55	=55	=55	=55	=55
4.E\	#	.	16e/LL	.	4g#X/	.	4.E\	.	8b\L]	.	.	.	.
.	.	.	16b/	.	.	.	.	.	.	.	.	.	.
.	.	.	16a/	.	.	.	.	.	16a\L	.	.	.	.
.	.	.	16b/JJ	.	.	.	.	.	16b\JJ	.	.	.	.
!	!	!	!LO:TX:a:t=P:problem=mixed beam	!	!LO:TUP:a:problem=klamra łukowa,kropka zamiast numeru	!	!	!	!	!	!	!	!
.	.	.	8cc#\L	.	12gg#X\L	.	.	.	[2cc#\	.	.	.	.
.	.	.	.	.	12ff#\	.	.	.	.	.	.	.	.
8C#\L	6	.	8e/	.	.	.	8C#\L	.	.	.	.	.	.
.	.	.	.	.	12ee\J	.	.	.	.	.	.	.	.
!	!	!	!	!	!LO:TUP:a:problem=klamra łukowa,kropka zamiast numeru	!	!	!	!	!	!	!	!
8D\	.	.	8f#/	.	12dd\L	.	8D\	.	.	.	.	.	.
.	.	.	.	.	12cc#\	.	.	.	.	.	.	.	.
8E\J	.	.	8gn/J	.	.	.	8E\J	.	.	.	.	.	.
.	.	.	.	.	12b\J	.	.	.	.	.	.	.	.
!	!	!	!	!	!LO:LB:g=original	!	!	!	!	!	!	!	!
=56	=56	=56	=56	=56	=56	=56	=56	=56	=56	=56	=56	=56	=56
4F#\	6	.	16f#/LL	.	4a/	.	4.F#\	.	8cc#\L]	.	.	0.r	0.r
.	.	.	16cc#/	.	.	.	.	.	.	.	.	.	.
.	.	.	16b/	.	.	.	.	.	(16b\L	.	.	.	.
.	.	.	16cc#/JJ	.	.	.	.	.	16cc#\JJ)	.	.	.	.
!	!	!	!LO:TX:a:t=P:problem=mixed beam	!	!LO:TUP:a:problem=klamra łukowa,kropka zamiast numeru	!	!	!	!	!	!	!	!
8F#\L	6	.	8dd\L	.	12aa\L	.	.	.	[<2dd\	.	.	.	.
.	.	.	.	.	12gg#X\	.	.	.	.	.	.	.	.
8D\	.	.	8f#/	.	.	.	8D\L	.	.	.	.	.	.
.	.	.	.	.	12ff#\J	.	.	.	.	.	.	.	.
!	!	!	!	!	!LO:TUP:a:problem=klamra łukowa,kropka zamiast numeru	!	!	!	!	!	!	!	!
8E\	.	.	8g#X/	.	12ee\L	.	8E\	.	.	.	.	.	.
.	.	.	.	.	12dd\	.	.	.	.	.	.	.	.
8F#\J	.	.	8a/J	.	.	.	8F#\J	.	.	.	.	.	.
.	.	.	.	.	12cc#\J	.	.	.	.	.	.	.	.
!LO:LB:g=original	!	!	!	!	!	!	!	!	!	!	!	!	!
=57	=57	=57	=57	=57	=57	=57	=57	=57	=57	=57	=57	=57	=57
!	!	!	!LO:TX:a:t=P:problem=mixed beam	!	!	!	!	!	!	!	!	!	!
4.G\	6	.	16g#X/LL	.	4b/	.	4.G#X\	.	8dd\L]	.	.	.	.
.	.	.	16dd\	.	.	.	.	.	.	.	.	.	.
.	.	.	16cc#\	.	.	.	.	.	16cc#\L	.	.	.	.
.	.	.	16dd\JJ	.	.	.	.	.	16dd\JJ	.	.	.	.
!	!	!	!LO:TX:a:t=P:problem=mixed beam	!	!LO:TUP:a:problem=klamra łukowa,kropka zamiast numeru	!	!	!	!	!	!	!	!
.	.	.	8ee\L	.	12bb\L	.	.	.	2ee\	.	.	.	.
.	.	.	.	.	12aa\	.	.	.	.	.	.	.	.
8E\L	6	.	8g#X/	.	.	.	8E\L	.	.	.	.	.	.
.	.	.	.	.	12gg#X\J	.	.	.	.	.	.	.	.
!	!	!	!	!	!LO:TUP:a:problem=klamra łukowa,kropka zamiast numeru	!	!	!	!	!	!	!	!
8F#\	#	.	8a/	.	12ff#\L	.	8F#\	.	.	.	.	.	.
.	.	.	.	.	12ee\	.	.	.	.	.	.	.	.
8G\J	.	.	8b/J	.	.	.	8G#\J	.	.	.	.	.	.
.	.	.	.	.	12dd\J	.	.	.	.	.	.	.	.
=58	=58	=58	=58	=58	=58	=58	=58	=58	=58	=58	=58	=58	=58
4A\	.	.	4e/	.	4cc#\	.	4A\	-son	4ee\	-son	.	.	.
4r	.	.	4cc#\|	.	4ee\	.	4r	.	4r	.	.	.	.
4r	.	.	4a\|	.	4aa\	.	4r	.	4r	.	.	.	.
=59	=59	=59	=59	=59	=59	=59	=59	=59	=59	=59	=59	=59	=59
.	.	.	.	.	8qqaa/	.	.	.	.	.	.	.	.
2.r	.	.	4ee\|	.	2gg#X\	.	2.r	.	2.r	.	.	.	.
.	.	.	4e/|	.	.	.	.	.	.	.	.	.	.
.	.	.	4dd\|	.	4ff#\	.	.	.	.	.	.	.	.
=60	=60	=60	=60	=60	=60	=60	=60	=60	=60	=60	=60	=60	=60
4r	.	.	4cc#\|	.	4ee\	.	4r	.	4r	.	.	0.r	0.r
4r	.	.	4b\|	.	(16dd\KL	.	4r	.	4r	.	.	.	.
.	.	.	.	.	8.cc#\)	.	.	.	.	.	.	.	.
4B\	.	.	4a\|	.	(16b\K	.	4A\	e-	4ee\	e-	.	.	.
.	.	.	.	.	8.a\J)	.	.	.	.	.	.	.	.
!	!	!	!	!	!	!	!	!	!LO:LB:g=original	!	!	!	!
=61	=61	=61	=61	=61	=61	=61	=61	=61	=61	=61	=61	=61	=61
4e\	6 4	.	4aa\|	.	4ccc#\	.	4e\	-lei-	4cc#\	-lei-	.	.	.
4E\	#	.	4gg#X\|	.	4bb\	.	4E\	-son	4b\	-son	.	.	.
4r	.	.	4r	.	4r	.	4r	.	4r	.	.	.	.
=62	=62	=62	=62	=62	=62	=62	=62	=62	=62	=62	=62	=62	=62
4F#\	6	.	4a/	.	8r	.	2F#\	ki-	4r	.	.	.	.
.	.	.	.	.	(8dd\L	.	.	.	.	.	.	.	.
4F#\	.	.	4a/	.	8cc#\	.	.	.	4a\	ki-	.	.	.
.	.	.	.	.	8dd\)	.	.	.	.	.	.	.	.
4F#\	.	.	4a/	.	(8ee\	.	4F#\	-ri-	4dd\	-ri-	.	.	.
.	.	.	.	.	8dd\J)	.	.	.	.	.	.	.	.
=63	=63	=63	=63	=63	=63	=63	=63	=63	=63	=63	=63	=63	=63
4G#X\	6 5	.	4b\	.	(8bb\L	.	2G#X\	-e	2b\	-e	.	.	.
.	.	.	.	.	8dd\	.	.	.	.	.	.	.	.
4G#\	.	.	4b\	.	8cc#\	.	.	.	.	.	.	.	.
.	.	.	.	.	8dd\)	.	.	.	.	.	.	.	.
4G#\	.	.	4b\	.	(8ee\	.	4G#\	e-	4ee\	e-	.	.	.
.	.	.	.	.	8dd\J)	.	.	.	.	.	.	.	.
!	!	!	!	!	!	!	!LO:LB:g=original	!	!	!	!	!	!
=64	=64	=64	=64	=64	=64	=64	=64	=64	=64	=64	=64	=64	=64
*	*	*	*tremolo	*	*tremolo	*	*	*	*	*	*	*	*
4A\	.	.	16a/LL	.	16cc#\LL	.	4A\	-lei-	4cc#\	-lei-	.	2.r	2.r
.	.	.	16a/	.	16cc#\	.	.	.	.	.	.	.	.
.	.	.	16a/	.	16cc#\	.	.	.	.	.	.	.	.
.	.	.	16a/JJ	.	16cc#\JJ	.	.	.	.	.	.	.	.
2D/	.	.	16ff#\LL	.	16aa\LL	.	2D\	.	4a\	.	.	.	.
.	.	.	16ff#\	.	16aa\	.	.	.	.	.	.	.	.
.	.	.	16ff#\	.	16aa\	.	.	.	.	.	.	.	.
.	.	.	16ff#\JJ	.	16aa\JJ	.	.	.	.	.	.	.	.
.	.	.	16dd\LL	.	16ff#\LL	.	.	.	4dd\	.	.	.	.
.	.	.	16dd\	.	16ff#\	.	.	.	.	.	.	.	.
.	.	.	16dd\	.	16ff#\	.	.	.	.	.	.	.	.
.	.	.	16dd\JJ	.	16ff#\JJ	.	.	.	.	.	.	.	.
=65	=65	=65	=65	=65	=65	=65	=65	=65	=65	=65	=65	=65	=65
4E\	#_	.	16b/LL	.	16dd\LL	.	4D\	-son	4b\	-son	.	4r	4r
.	.	.	16b/	.	16dd\	.	.	.	.	.	.	.	.
.	.	.	16b/	.	16dd\	.	.	.	.	.	.	.	.
.	.	.	16b/JJ	.	16dd\JJ	.	.	.	.	.	.	.	.
4E\	.	.	16g#X/LL	.	16b\LL	.	4E\	e-	4r	.	.	4r	4r
.	.	.	16g#X/	.	16b\	.	.	.	.	.	.	.	.
.	.	.	16g#X/	.	16b\	.	.	.	.	.	.	.	.
.	.	.	16g#X/JJ	.	16b\JJ	.	.	.	.	.	.	.	.
4D\	X	.	16e/LL	.	16g#X/LL	.	4D\	.	4b\	e-	.	4ee\	4gg#X\
.	.	.	16e/	.	16g#X/	.	.	.	.	.	.	.	.
.	.	.	16e/	.	16g#X/	.	.	.	.	.	.	.	.
.	.	.	16e/JJ	.	16g#X/JJ	.	.	.	.	.	.	.	.
*	*	*	*Xtremolo	*	*Xtremolo	*	*	*	*	*	*	*	*
!	!	!	!LO:LB:g=original	!	!	!	!	!	!	!	!	!	!
=66	=66	=66	=66	=66	=66	=66	=66	=66	=66	=66	=66	=66	=66
8C#/L	.	.	4e/	.	8.a/L	.	8C#\L	-lei-	8cc#\L	-lei-	.	4ff#\	4aa\
8D/J	.	.	.	.	.	.	8D\J	.	8b\J	.	.	.	.
.	.	.	.	.	16e/Jk	.	.	.	.	.	.	.	.
.	.	.	8qqa/	.	.	.	.	.	.	.	.	.	.
4E\	6 4	.	2g#Xt/	.	2bT\	.	4E\	.	2bT\	.	.	2ee\	2gg#Xt\
4EE/	x #	.	.	.	.	.	4EE/	.	.	.	.	.	.
=67	=67	=67	=67	=67	=67	=67	=67	=67	=67	=67	=67	=67	=67
!LO:TX:a:t=Solo	!	!	!	!	!	!	!	!	!	!	!	!	!
4AA/	.	.	8a/L	.	8a\L	.	4AA/	-son	4a\	-son	.	4ee\	4aa\
.	.	.	8a/	.	8cc#\	.	.	.	.	.	.	.	.
4r	.	.	8b/	.	8dd\	.	4r	.	4r	.	.	4r	4r
.	.	.	8cc#/	.	8ee\	.	.	.	.	.	.	.	.
4D\	.	.	8dd/	.	8ff#\	.	4r	.	4r	.	.	4r	4r
.	.	.	8f#/J	.	8a\J	.	.	.	.	.	.	.	.
=68	=68	=68	=68	=68	=68	=68	=68	=68	=68	=68	=68	=68	=68
4GG#X/	.	.	8g#X/L	.	8b\L	.	0.r	.	0.r	.	.	1.r	1.r
.	.	.	8g#/	.	8b\	.	.	.	.	.	.	.	.
4r	.	.	8a/	.	8cc#\	.	.	.	.	.	.	.	.
.	.	.	8b/	.	8dd\	.	.	.	.	.	.	.	.
4C#/	.	.	8cc#/	.	8ee\	.	.	.	.	.	.	.	.
.	.	.	8e/J	.	8g#X\J	.	.	.	.	.	.	.	.
!	!	!	!	!	!LO:LB:g=original	!	!	!	!	!	!	!	!
=69	=69	=69	=69	=69	=69	=69	=69	=69	=69	=69	=69	=69	=69
!	!	!	!	!	!LO:TX:a:t=P:problem=mixed beam	!	!	!	!	!	!	!	!
4FF#/	.	.	8f#/L	.	8a\L	.	.	.	.	.	.	.	.
.	.	.	8f#/	.	8a\	.	.	.	.	.	.	.	.
4r	.	.	8g#X/	.	8b\	.	.	.	.	.	.	.	.
.	.	.	8a/	.	8cc#\	.	.	.	.	.	.	.	.
4BB/	.	.	8b/	.	8dd\	.	.	.	.	.	.	.	.
.	.	.	8d/J	.	8f#/J	.	.	.	.	.	.	.	.
=70	=70	=70	=70	=70	=70	=70	=70	=70	=70	=70	=70	=70	=70
8E\L	#3	.	4e/	.	4g#X/	.	.	.	.	.	.	8r	8r
8F#\	.	.	.	.	.	.	.	.	.	.	.	8ee\L	8ee\L
8G#X\	.	.	2bT\	.	[2dd\	.	.	.	.	.	.	8ee\	8ee\
8A\	.	.	.	.	.	.	.	.	.	.	.	8ee\	8ee\
8B\	.	.	.	.	.	.	.	.	.	.	.	8ee\	8ee\
8G#\J	.	.	.	.	.	.	.	.	.	.	.	8ee\J	8ee\J
=71	=71	=71	=71	=71	=71	=71	=71	=71	=71	=71	=71	=71	=71
4E\	#3	.	8b/L	.	8dd\L]	.	.	.	.	.	.	4ee\	4ee\
.	.	.	8g#X/	.	8b\	.	.	.	.	.	.	.	.
4EE/	.	.	8a/	.	8cc#\	.	.	.	.	.	.	4r	4r
.	.	.	8g#/	.	8b\	.	.	.	.	.	.	.	.
4D\	.	.	8a/	.	8cc#\	.	.	.	.	.	.	4r	4r
.	.	.	8b/J	.	8dd\J	.	.	.	.	.	.	.	.
!LO:LB:g=original	!	!	!	!	!	!	!	!	!	!	!	!	!
=72	=72	=72	=72	=72	=72	=72	=72	=72	=72	=72	=72	=72	=72
!	!	!	!	!	!LO:TUP:a:problem=klamra łukowa,kropka zamiast numeru	!	!	!	!	!	!	!	!
8C#/L	6	.	4a/	.	12ee\L	.	2.r	.	0.r	.	.	8ee\L	4aa\
.	.	.	.	.	12a\	.	.	.	.	.	.	.	.
8D/J	.	.	.	.	.	.	.	.	.	.	.	8ff#\J	.
.	.	.	.	.	12b\J	.	.	.	.	.	.	.	.
.	.	.	8qqa/	.	.	.	.	.	.	.	.	.	8qqaa/
4E\	6 4	.	2g#Xt/	.	2bT\	.	.	.	.	.	.	2eeT\	2gg#X\
4EE/	x #	.	.	.	.	.	.	.	.	.	.	.	.
=73	=73	=73	=73	=73	=73	=73	=73	=73	=73	=73	=73	=73	=73
!	!	!LO:DY:a:t=p&colon;	!	!	!	!	!LO:TX:a:t=Solo	!	!	!	!	!	!
4AA/	.	p	4a/	.	4a/	.	4r	.	.	.	.	4ee\	4aa\
4C#/	.	.	4r	.	4r	.	4E\	Chri-	.	.	.	4r	4r
4AA/	.	.	4r	.	4r	.	4A\	-ste	.	.	.	4r	4r
=74	=74	=74	=74	=74	=74	=74	=74	=74	=74	=74	=74	=74	=74
.	.	.	.	.	.	.	8qqA/	.	.	.	.	.	.
!	!	!	!	!LO:DY:a:t=pia	!	!	!	!	!	!	!	!	!
4E\	#_	.	4r	p	4r	.	2G#X\	Chri-	.	.	.	0.r	0.r
!	!	!	!	!	!	!LO:DY:a:t=pia	!	!	!	!	!	!	!
4EE/	.	.	4e/	.	4e/	p	.	.	.	.	.	.	.
4D\	3	.	[4a/	.	[4a/	.	4F#\	-ste	.	.	.	.	.
=75	=75	=75	=75	=75	=75	=75	=75	=75	=75	=75	=75	=75	=75
4C#/	.	.	4a/]	.	4a/]	.	4E\	e-	.	.	.	.	.
4BB/	6	.	4g#X/	.	4g#X/	.	(16D/KL	.	.	.	.	.	.
.	.	.	.	.	.	.	8.C#/J)	.	.	.	.	.	.
4AA/	.	.	4ee\	.	4a/	.	16BB/KL	.	.	.	.	.	.
.	.	.	.	.	.	.	8.AA/J	.	.	.	.	.	.
=76	=76	=76	=76	=76	=76	=76	=76	=76	=76	=76	=76	=76	=76
4E\	6 4	.	4aa\	.	4ccc#\	.	4c#\	-lei-	0.r	.	.	.	.
.	x #	.	.	.	.	.	.	.	.	.	.	.	.
4EE/	.	.	4gg#X\	.	4bb\	.	4B\	-son	.	.	.	.	.
4r	.	.	4ee\	.	4r	.	4r	.	.	.	.	.	.
=77	=77	=77	=77	=77	=77	=77	=77	=77	=77	=77	=77	=77	=77
8A\L	6 5	.	4cc#\	.	4r	.	8A\L	e-	.	.	.	.	.
8F#\	.	.	.	.	.	.	8F#\J	.	.	.	.	.	.
8B\	3_	.	8dd\L	.	4ff#\	.	8B\L	-lei-	.	.	.	.	.
8A\	.	.	8cc#\J	.	.	.	8A\	.	.	.	.	.	.
8G#X\	.	.	[4dd\	.	(8bb\L	.	8G#X\	.	.	.	.	.	.
8F#\J	.	.	.	.	8aa\J)	.	8F#\J	.	.	.	.	.	.
=78	=78	=78	=78	=78	=78	=78	=78	=78	=78	=78	=78	=78	=78
8G\L	6 5	.	4dd\]	.	8bb\L|	.	8G\L	.	.	.	.	0.r	0.r
8E\	.	.	.	.	8gg#X\J|	.	8E\	.	.	.	.	.	.
8A\	3_	.	8cc#\L	.	4ee\	.	8A\	.	.	.	.	.	.
8G\	.	.	8b\J	.	.	.	8G\	.	.	.	.	.	.
8F#\	.	.	[4cc#\	.	(8aa\L	.	8F#\	.	.	.	.	.	.
8E\J	.	.	.	.	8gg#\J)	.	8E\J	.	.	.	.	.	.
=79	=79	=79	=79	=79	=79	=79	=79	=79	=79	=79	=79	=79	=79
8F#\L	6 5	.	4cc#\]	.	8aa\L|	.	8F#\L	.	.	.	.	.	.
8D\	.	.	.	.	8ff#\J|	.	8D\	.	.	.	.	.	.
8G#X\	3_	.	8b\L	.	4dd\	.	8G#X\	.	.	.	.	.	.
8F#\	.	.	8a\J	.	.	.	8F#\	.	.	.	.	.	.
8E\	.	.	[4b\	.	(8gg#X\L	.	8E\	.	.	.	.	.	.
8D\J	.	.	.	.	8ff#\J)	.	8D\J	.	.	.	.	.	.
!	!	!	!	!	!	!	!LO:LB:g=original	!	!	!	!	!	!
=80	=80	=80	=80	=80	=80	=80	=80	=80	=80	=80	=80	=80	=80
8E\L	6 5	.	4b\]	.	8gg\L|	.	8E\L	.	0.r	.	.	.	.
8C#\	.	.	.	.	8ee\J|	.	8C#\	.	.	.	.	.	.
8F#\	3_	.	8a/L	.	4cc#\	.	8F#\	.	.	.	.	.	.
8E\	.	.	8g#X/J	.	.	.	8E\	.	.	.	.	.	.
8D\	.	.	4a/	.	(8ff#\L	.	8D\	.	.	.	.	.	.
8C#\J	.	.	.	.	8ee\J)	.	8C#\J	.	.	.	.	.	.
!	!	!	!LO:LB:g=original	!	!	!	!	!	!	!	!	!	!
=81	=81	=81	=81	=81	=81	=81	=81	=81	=81	=81	=81	=81	=81
8D/L	6 5_	.	4a/	.	8ff#\L|	.	8D/L	.	.	.	.	.	.
8BB/	.	.	.	.	8dd\J|	.	8BB/	.	.	.	.	.	.
8E/	#	.	8g#X/L	.	4b\	.	8E/	.	.	.	.	.	.
8D/	.	.	8f#/J	.	.	.	8D/	.	.	.	.	.	.
8C#/	.	.	4g#/	.	8ee\L	.	8C#/	.	.	.	.	.	.
8BB/J	.	.	.	.	8dd\J	.	8BB/J	.	.	.	.	.	.
=82	=82	=82	=82	=82	=82	=82	=82	=82	=82	=82	=82	=82	=82
4AA/	.	.	4e/	.	8cc#\L|	.	4AA/	.	.	.	.	1.r	1.r
.	.	.	.	.	(8aa\	.	.	.	.	.	.	.	.
4BB/	6	.	4d/	.	8gg#X\	.	4BB/	.	.	.	.	.	.
.	.	.	.	.	8aa\)	.	.	.	.	.	.	.	.
4C#/	.	.	4e/	.	(8gg#\	.	4C#/	.	.	.	.	.	.
.	.	.	.	.	8aa\J)	.	.	.	.	.	.	.	.
!	!	!	!	!	!LO:LB:g=original	!	!	!	!	!	!	!	!
=83	=83	=83	=83	=83	=83	=83	=83	=83	=83	=83	=83	=83	=83
4D\	.	.	4b\	.	4ff#\	.	4D\	.	.	.	.	.	.
4E\	6 4	.	4g#X/	.	4b\	.	2E\	.	.	.	.	.	.
.	x #	.	.	.	.	.	.	.	.	.	.	.	.
4EE/	.	.	4b\	.	4gg#X\	.	.	.	.	.	.	.	.
=84	=84	=84	=84	=84	=84	=84	=84	=84	=84	=84	=84	=84	=84
!	!	!	!LO:TX:a:t=Tutti	!	!LO:TX:a:i:t=Tutti	!	!	!	!	!	!	!	!
4AA/	.	.	4cc#\	.	8aa\L	.	4AA/	-son	4r	.	.	2.r	8r
.	.	.	.	.	8ee\	.	.	.	.	.	.	.	8ee\L
4A\	.	.	4cc#\	.	8ee\	.	4A\	Chri-	4ee\	Chri-	.	.	8ee\
.	.	.	.	.	8ee\	.	.	.	.	.	.	.	8ee\
4G#X\	.	.	4bT\	.	8ee\	.	4G#X\	-ste	4ee\	-ste	.	.	8ee\
.	.	.	.	.	8ee\J	.	.	.	.	.	.	.	8ee\J
!	!	!	!	!	!	!	!	!	!	!	!	!LO:LB:g=original	!
=85	=85	=85	=85	=85	=85	=85	=85	=85	=85	=85	=85	=85	=85
*	*	*	*	*	*tremolo	*	*	*	*	*	*	*	*
4A\	6_ 3	.	4cc#\	.	8ee\L	.	4A\	.	4cc#\	.	.	8r	4ee\
.	.	.	.	.	8ee\	.	.	.	.	.	.	8ee\L	.
4G#X\	x 3	.	4b\	.	8ee\	.	4G\	.	4b\	.	.	8ee\	4r
.	.	.	.	.	8ee\	.	.	.	.	.	.	8ee\	.
4F#\	x 3	.	4a\	.	8ee\	.	4F#\	e-	4a\	e-	.	8ee\	4r
.	.	.	.	.	8ee\J	.	.	.	.	.	.	8ee\J	.
!LO:LB:g=original	!	!	!	!	!	!	!	!	!	!	!	!	!LO:LB:g=original
=86	=86	=86	=86	=86	=86	=86	=86	=86	=86	=86	=86	=86	=86
4E\	8_ 3	.	4g#X/	.	8ee\L	.	4E\	-lei-	4g#X\	-lei-	.	4ee\	8r
.	.	.	.	.	8ee\	.	.	.	.	.	.	.	8ee\L
4F#\	x 3	.	4a/	.	8ee\	.	4F#\	.	4ee\	.	.	4r	8ee\
.	.	.	.	.	8ee\	.	.	.	.	.	.	.	8ee\
4G\	x 3	.	4b/	.	8ee\	.	4G#X\	.	4dd\	.	.	4r	8ee\
.	.	.	.	.	8ee\J	.	.	.	.	.	.	.	8ee\J
=87	=87	=87	=87	=87	=87	=87	=87	=87	=87	=87	=87	=87	=87
4A\	.	.	4cc#\	.	8ee\L	.	4A\	.	4cc#\	.	.	8r	4ee\
.	.	.	.	.	8ee\	.	.	.	.	.	.	8ee\L	.
4G#X\	.	.	4b\	.	8ee\	.	4G\	.	4b\	.	.	8ee\	4r
.	.	.	.	.	8ee\	.	.	.	.	.	.	8ee\	.
4A\	.	.	4cc#\	.	8ee\	.	4A\	.	4a\	.	.	8ee\	4r
.	.	.	.	.	8ee\J	.	.	.	.	.	.	8ee\J	.
=88	=88	=88	=88	=88	=88	=88	=88	=88	=88	=88	=88	=88	=88
4G\	.	.	4b\	.	8ee\L	.	4G#X\	.	4g#X\	.	.	4ee\	8r
.	.	.	.	.	8ee\	.	.	.	.	.	.	.	8ee\L
4F#\	.	.	4a/	.	8ee\	.	4F#\	.	4a\	.	.	4r	8ee\
.	.	.	.	.	8ee\	.	.	.	.	.	.	.	8ee\
4E\	.	.	4g#X/	.	8ee\	.	4E\	.	4b\	.	.	4r	8ee\
.	.	.	.	.	8ee\J	.	.	.	.	.	.	.	8ee\J
*	*	*	*	*	*Xtremolo	*	*	*	*	*	*	*	*
!	!	!	!	!	!	!	!	!	!LO:LB:g=original	!	!	!	!
=89	=89	=89	=89	=89	=89	=89	=89	=89	=89	=89	=89	=89	=89
4A\	.	.	8cc#\L	.	8ee\L	.	4A\	.	4cc#\	.	.	4a/	4ee\
.	.	.	16a\L	.	(16cc#\L	.	.	.	.	.	.	.	.
.	.	.	16b\JJ	.	16dd\JJ)	.	.	.	.	.	.	.	.
4AA/	.	.	8cc#\L	.	8ee\L	.	4AA/	-son	4cc#\	-son	.	4r	4r
.	.	.	8a\	.	8cc#\	.	.	.	.	.	.	.	.
4r	.	.	8b\	.	8dd\	.	4r	.	4r	.	.	4r	4r
.	.	.	8cc#\J	.	8ee\J	.	.	.	.	.	.	.	.
=90	=90	=90	=90	=90	=90	=90	=90	=90	=90	=90	=90	=90	=90
*	*	*	*	*	*tremolo	*	*	*	*	*	*	*	*
4r	.	.	4dd\	.	8ff#\L	.	4r	.	4r	.	.	1.r	2.r
.	.	.	.	.	8ff#\	.	.	.	.	.	.	.	.
4B\	n	.	4dd\	.	8ff#\	.	4B\	Chri-	4ff#\	Chri-	.	.	.
.	.	.	.	.	8ff#\	.	.	.	.	.	.	.	.
4A#X\	6	.	4cc#\	.	8ff#\	.	4A#X\	-ste	4ff#\	-ste-	.	.	.
.	.	.	.	.	8ff#\J	.	.	.	.	.	.	.	.
=91	=91	=91	=91	=91	=91	=91	=91	=91	=91	=91	=91	=91	=91
4B\	.	.	4dd\	.	8ff#\L	.	4B\	.	4dd\	.	.	.	8r
.	.	.	.	.	8ff#\	.	.	.	.	.	.	.	8f#/L
4A#X\	.	.	4cc#\	.	8ff#\	.	4A#X\	.	4cc#\	.	.	.	8f#/
.	.	.	.	.	8ff#\	.	.	.	.	.	.	.	8f#/
4G#X\	.	.	4b\	.	8ff#\	.	4G#X\	e-	4b\	-e-	.	.	8f#/
.	.	.	.	.	8ff#\J	.	.	.	.	.	.	.	8f#/J
!	!	!	!	!	!	!	!LO:LB:g=original	!	!	!	!	!	!
=92	=92	=92	=92	=92	=92	=92	=92	=92	=92	=92	=92	=92	=92
4F#\	#	.	4a#X/	.	8ff#\L	.	4F#\	-lei-	4a#X\	-lei-	.	8r	4f#/
.	.	.	.	.	8ff#\	.	.	.	.	.	.	8f#/L	.
4G#X\	.	.	4b/	.	8ff#\	.	4G#X\	.	4ff#\	.	.	8f#/	4r
.	.	.	.	.	8ff#\	.	.	.	.	.	.	8f#/	.
4A#X\	.	.	4cc#/	.	8ff#\	.	4A#X\	.	4ee\	.	.	8f#/	4r
.	.	.	.	.	8ff#\J	.	.	.	.	.	.	8f#/J	.
=93	=93	=93	=93	=93	=93	=93	=93	=93	=93	=93	=93	=93	=93
4B\	.	.	4dd\	.	8ff#\L	.	4B\	.	4dd\	.	.	4f#/	8r
.	.	.	.	.	8ff#\	.	.	.	.	.	.	.	8f#/L
4A#X\	.	.	4cc#\	.	8ff#\	.	4A#X\	.	4cc#\	.	.	4r	8f#/
.	.	.	.	.	8ff#\	.	.	.	.	.	.	.	8f#/
4B\	.	.	4dd\	.	8ff#\	.	4B\	.	4b\	.	.	4r	8f#/
.	.	.	.	.	8ff#\J	.	.	.	.	.	.	.	8f#/J
=94	=94	=94	=94	=94	=94	=94	=94	=94	=94	=94	=94	=94	=94
4A#X\	.	.	4cc#\	.	8ff#\L	.	4A#X\	.	4cc#\	.	.	8r	4f#/
.	.	.	.	.	8ff#\	.	.	.	.	.	.	8f#/L	.
4G#X\	.	.	4b\	.	8ff#\	.	4G#X\	.	4ff#\	.	.	8f#/	4r
.	.	.	.	.	8ff#\	.	.	.	.	.	.	8f#/	.
4F#\	.	.	4a#X/	.	8ff#\	.	4F#\	.	4ee\	.	.	8f#/	4r
.	.	.	.	.	8ff#\J	.	.	.	.	.	.	8f#/J	.
*	*	*	*	*	*Xtremolo	*	*	*	*	*	*	*	*
=95	=95	=95	=95	=95	=95	=95	=95	=95	=95	=95	=95	=95	=95
4B\	.	.	4dd\	.	4ff#\	.	4B\	.	8dd\L	.	.	4f#/	4f#/
.	.	.	.	.	.	.	.	.	8cc#\J	.	.	.	.
4BB/	.	.	4dd\	.	4ff#\	.	4BB/	-son	4b\	-son	.	4f#/	4f#/
4D\	.	.	4f#/	.	4f#/	.	4D/	e-	4b\	e-	.	4r	4r
=96	=96	=96	=96	=96	=96	=96	=96	=96	=96	=96	=96	=96	=96
4.E\	6	.	4.B/	.	4g/	.	4.E\	-lei-	4b\	-lei-	.	1.r	1.r
!	!	!	!	!	!LO:TUP:a:problem=klamra łukowa,kropka zamiast numeru	!	!	!	!	!	!	!	!
.	.	.	.	.	12gg\L	.	.	.	4g\	.	.	.	.
.	.	.	.	.	12ff#\	.	.	.	.	.	.	.	.
8C#\L	6	.	8e/L	.	.	.	8C#/L	.	.	.	.	.	.
.	.	.	.	.	12ee\J	.	.	.	.	.	.	.	.
!	!	!	!	!	!LO:TUP:a:problem=klamra łukowa,kropka zamiast numeru	!	!	!	!	!	!	!	!
8D\	.	.	8f#/	.	12dd\L	.	8D/	.	[<4cc#\	.	.	.	.
.	.	.	.	.	12cc#\	.	.	.	.	.	.	.	.
8E\J	.	.	8g/J	.	.	.	8E/J	.	.	.	.	.	.
.	.	.	.	.	12b\J	.	.	.	.	.	.	.	.
=97	=97	=97	=97	=97	=97	=97	=97	=97	=97	=97	=97	=97	=97
2F#\	#_	.	4c#/	.	4a#X/	.	2F#\	.	4cc#\]	.	.	.	.
!	!	!	!	!	!LO:TUP:a:problem=klamra łukowa,kropka zamiast numeru	!	!	!	!	!	!	!	!
.	.	.	8ee\L	.	12ccc#\L	.	.	.	4a#X\	.	.	.	.
.	.	.	.	.	12bb\	.	.	.	.	.	.	.	.
.	.	.	8cc#\J	.	.	.	.	.	.	.	.	.	.
.	.	.	.	.	12aa#X\J	.	.	.	.	.	.	.	.
!	!	!	!	!	!LO:TUP:a:problem=klamra łukowa,kropka zamiast numeru	!	!	!	!	!	!	!	!
4E\	.	.	4a#X/	.	12ggn\L	.	4E\	.	4ff#\	.	.	.	.
.	.	.	.	.	12ff#\	.	.	.	.	.	.	.	.
.	x	.	.	.	12ee\J	.	.	.	.	.	.	.	.
!	!	!	!	!	!LO:LB:g=original	!	!	!	!	!	!	!	!
=98	=98	=98	=98	=98	=98	=98	=98	=98	=98	=98	=98	=98	=98
!	!	!	!	!	!LO:TUP:a:problem=klamra łukowa,kropka zamiast numeru	!	!	!	!	!	!	!	!
8D\L	.	.	4b\	.	12dd\L	.	8D\L	.	4b\	.	.	8r	8r
.	.	.	.	.	12cc#\	.	.	.	.	.	.	.	.
8E\J	.	.	.	.	.	.	8E\J	.	.	.	.	16f#/LL	16f#/LL
.	.	.	.	.	12b\J	.	.	.	.	.	.	.	.
.	.	.	.	.	.	.	.	.	.	.	.	16f#/JJ	16f#/JJ
4F#\	.	.	2a#X/	.	2cc#t\	.	4F#\	.	2cc#t\	.	.	8f#/L	8f#/L
.	.	.	.	.	.	.	.	.	.	.	.	8f#/	8f#/
4FF#/	.	.	.	.	.	.	4FF#/	.	.	.	.	8f#/	8f#/
.	.	.	.	.	.	.	.	.	.	.	.	8f#/J	8f#/J
=99	=99	=99	=99	=99	=99	=99	=99	=99	=99	=99	=99	=99	=99
4BB/	.	.	4b\	.	8b\L	.	4BB/	-son	4b\	-son	.	4f#/	4f#/
.	.	.	.	.	8gg\	.	.	.	.	.	.	.	.
4B\	6	.	4dd\	.	8gg\	.	4B\	ki-	4dd\	ki-	.	4dd\	4gg\
.	.	.	.	.	8gg\	.	.	.	.	.	.	.	.
4B\	.	.	4dd\	.	8gg\	.	4B\	-ri-	4dd\	-ri-	.	4dd\	4gg\
.	.	.	.	.	8gg\J	.	.	.	.	.	.	.	.
!LO:LB:g=original	!	!	!LO:LB:g=original	!	!	!	!	!	!LO:LB:g=original	!	!	!	!
=100	=100	=100	=100	=100	=100	=100	=100	=100	=100	=100	=100	=100	=100
4c#\	.	.	4ee\	.	8gg\L	.	4c#\	-e	2ee\	-e	.	2ee\	2gg\
.	.	.	.	.	8ee\	.	.	.	.	.	.	.	.
4A\	.	.	4cc#\	.	8aa\	.	4A\	.	.	.	.	.	.
.	.	.	.	.	8aa\	.	.	.	.	.	.	.	.
4d\	.	.	4ff#\	.	8aa\	.	4d\	e-	4ff#\	e-	.	4dd\	4ff#\
.	.	.	.	.	8aa\J	.	.	.	.	.	.	.	.
!	!	!	!	!	!	!	!	!	!	!	!	!LO:LB:g=original	!
=101	=101	=101	=101	=101	=101	=101	=101	=101	=101	=101	=101	=101	=101
4A\	.	.	8ee\L	.	4aa\	.	4A\	-lei-	4ee\	-lei-	.	4a/	4ee\
.	.	.	8cc#\	.	.	.	.	.	.	.	.	.	.
8F#\L	.	.	8dd\	.	8aa\L	.	8F#\L	.	4.dd\	.	.	8f#/L	8dd\L
8E\	.	.	8ee\	.	8gg\	.	8E\	.	.	.	.	8a/	8ee\
8F#\	.	.	8a\	.	8aa\	.	8F#\	.	.	.	.	8dd/	8ff#\
8D\J	.	.	8dd\J	.	8ff#\J	.	8D\J	.	8ff#\	.	.	8f#/J	8dd\J
!	!	!	!	!	!	!	!	!	!	!	!	!	!LO:LB:g=original
=102	=102	=102	=102	=102	=102	=102	=102	=102	=102	=102	=102	=102	=102
.	.	.	8qqee/	.	.	.	.	.	.	.	.	.	.
4A\	.	.	4dd\	.	4ff#\	.	4A\	.	4ff#\	.	.	8r	4ff#\
.	.	.	.	.	.	.	.	.	.	.	.	16a/LL	.
.	.	.	.	.	.	.	.	.	.	.	.	16a/JJ	.
4AA/	.	.	4cc#\	.	4ee\	.	4AA/	-son	4ee\	-son	.	8a/L	8ee\L
.	.	.	.	.	.	.	.	.	.	.	.	8a/	8ee\
4r	.	.	4r	.	4r	.	4r	.	4r	.	.	8a/	8ee\
.	.	.	.	.	.	.	.	.	.	.	.	8a/J	8ee\J
=103	=103	=103	=103	=103	=103	=103	=103	=103	=103	=103	=103	=103	=103
2d\	.	.	8r	.	8r	.	4r	.	4r	.	.	4dd\	4ff#\
.	.	.	8dd\L	.	8ff#\L	.	.	.	.	.	.	.	.
.	.	.	8ee\	.	8gg\	.	4d\	ki-	4dd\	ki-	.	4r	4r
.	.	.	8ff#\	.	8aa\	.	.	.	.	.	.	.	.
4G\	.	.	8gg\	.	8bb\	.	4G\	-ri-	4dd\	-ri-	.	4gg\	4bb\
.	.	.	8b\J	.	8dd\J	.	.	.	.	.	.	.	.
!	!	!	!	!	!	!	!LO:LB:g=original	!	!	!	!	!	!
=104	=104	=104	=104	=104	=104	=104	=104	=104	=104	=104	=104	=104	=104
!	!	!	!LO:TX:a:t=P:problem=mixed beam	!	!	!	!	!	!	!	!	!	!
4c#\	.	.	8cc#\L	.	8ee\L	.	4c#\	-e	4ee\	-e	.	4gg\	4bb\
.	.	.	8cc#\	.	8ee\	.	.	.	.	.	.	.	.
4r	.	.	8dd\	.	8ff#\	.	4r	.	4r	.	.	4r	4r
.	.	.	8ee\	.	8gg\	.	.	.	.	.	.	.	.
4F#\	7	.	8ff#\	.	8aa\	.	4F#\	e-	4cc#\	e-	.	[4ff#\	[4aa\
.	.	.	8a/J	.	8cc#\J	.	.	.	.	.	.	.	.
=105	=105	=105	=105	=105	=105	=105	=105	=105	=105	=105	=105	=105	=105
!	!	!	!LO:TX:a:t=P:problem=mixed beam	!	!	!	!	!	!	!	!	!	!
4B\	7	.	8b\L	.	8dd\L	.	4B\	-lei-	4dd\	-lei-	.	2ff#\]	2aa\]
.	.	.	8b\	.	8dd\	.	.	.	.	.	.	.	.
4r	.	.	8cc#\	.	8ee\	.	4r	.	4r	.	.	.	.
.	.	.	8dd\	.	8ff#\	.	.	.	.	.	.	.	.
4E\	7	.	8ee\	.	8gg\	.	4E\	.	4b\	.	.	[4ee\	[4gg\
!	!	!	!	!	!	!	!LO:TX:t=P:problem=wykreślony takt	!	!	!	!	!	!
.	.	.	8g/J	.	8b\J	.	.	.	.	.	.	.	.
=106	=106	=106	=106	=106	=106	=106	=106	=106	=106	=106	=106	=106	=106
!	!	!	!LO:TX:a:t=P:problem=mixed beam	!	!	!	!	!	!	!	!	!	!
4A\	7	.	8a\L	.	8cc#\L	.	4A\	.	4cc#\	.	.	2ee\]	2gg\]
.	.	.	8a\	.	8cc#\	.	.	.	.	.	.	.	.
4r	.	.	8b\	.	8dd\	.	4r	.	4r	.	.	.	.
.	.	.	8cc#\	.	8ee\	.	.	.	.	.	.	.	.
4D\	.	.	8dd\	.	8ff#\	.	4D/	.	4a\	.	.	4dd\	4ff#\
.	.	.	8f#/J	.	8a\J	.	.	.	.	.	.	.	.
=107	=107	=107	=107	=107	=107	=107	=107	=107	=107	=107	=107	=107	=107
8G\L	6_	.	4g/	.	4b\	.	8G\L	.	4b\	.	.	4a/	8ee\L
8E\	.	.	.	.	.	.	8E\	.	.	.	.	.	8ff#\J
8F#\	.	.	[2ee\	.	[2gg\	.	8F#\	.	[<2gg\	.	.	[2ee\	[2gg\
8E\	.	.	.	.	.	.	8E\	.	.	.	.	.	.
8F#\	.	.	.	.	.	.	8F#\	.	.	.	.	.	.
8G\J	.	.	.	.	.	.	8G\J	.	.	.	.	.	.
=108	=108	=108	=108	=108	=108	=108	=108	=108	=108	=108	=108	=108	=108
4A\	.	.	8ee\L]	.	8gg\L]	.	2A\	.	8gg\L]	.	.	8ee\L]	8gg\L]
.	.	.	8cc#\	.	8ee\	.	.	.	8ee\	.	.	8a\	8ee\
4AA/	X	.	8dd\	.	8ff#\	.	.	.	8ff#\	.	.	8dd\	8ff#\
.	.	.	8cc#\	.	8ee\	.	.	.	8ee\	.	.	8a\	8ee\
4G\	.	.	8dd\	.	8ff#\	.	4G\	.	8ff#\	.	.	8dd\	8ff#\
.	.	.	8ee\J	.	8gg\J	.	.	.	8gg\J	.	.	8ee\J	8gg\J
=109	=109	=109	=109	=109	=109	=109	=109	=109	=109	=109	=109	=109	=109
!	!	!	!	!	!LO:TUP:a:problem=klamra łukowa,kropka zamiast numeru	!	!	!	!	!	!	!	!
8F#\L	.	.	4dd\	.	12aa\L	.	8F#\L	.	4ff#\	.	.	4dd\	8ff#\L
.	.	.	.	.	12dd\	.	.	.	.	.	.	.	.
8G\J	.	.	.	.	.	.	8G\J	.	.	.	.	.	8ee\J
.	.	.	.	.	12ee\J	.	.	.	.	.	.	.	.
.	.	.	8qqdd/	.	.	.	.	.	.	.	.	.	.
4A\	.	.	2cc#\	.	2eeT\	.	4A\	.	2ee\	.	.	4a/	2eeT\
4AA/	.	.	.	.	.	.	4AA/	.	.	.	.	4a/	.
=110	=110	=110	=110	=110	=110	=110	=110	=110	=110	=110	=110	=110	=110
!	!	!LO:DY:a	!	!LO:DY:a:rj:t=p&colon;	!	!LO:DY:a:t=pia	!	!	!	!	!LO:DY:a:t=pia	!	!
4D\	.	p	8dd\L	p	8dd\L	p	4D/	-son	4dd\	-son	p	4f#/	4dd\
.	.	.	8dd\	.	8ff#\	.	.	.	.	.	.	.	.
4d\	.	.	8ee\	.	8gg\	.	4d\	ki-	4dd\	ki-	.	4r	4r
.	.	.	8ff#\	.	8aa\	.	.	.	.	.	.	.	.
4G\	.	.	8gg\	.	8bb\	.	4G\	-ri-	4dd\	-ri-	.	4r	4r
.	.	.	8b\J	.	8dd\J	.	.	.	.	.	.	.	.
!	!	!	!	!	!LO:LB:g=original	!	!	!	!LO:LB:g=original	!	!	!	!
=111	=111	=111	=111	=111	=111	=111	=111	=111	=111	=111	=111	=111	=111
!	!	!	!LO:TX:a:t=P:problem=mixed beam	!	!	!	!	!	!	!	!	!	!
4c#\	.	.	8cc#\L	.	8ee\L	.	4c#\	-e	4ee\	-e	.	0.r	0.r
.	.	.	8cc#\	.	8ee\	.	.	.	.	.	.	.	.
4r	.	.	8dd\	.	8ff#\	.	4r	.	4r	.	.	.	.
.	.	.	8ee\	.	8gg\	.	.	.	.	.	.	.	.
4F#\	7	.	8ff#\	.	8aa\	.	4F#\	e-	4cc#\	e-	.	.	.
.	.	.	8a/J	.	8cc#\J	.	.	.	.	.	.	.	.
=112	=112	=112	=112	=112	=112	=112	=112	=112	=112	=112	=112	=112	=112
4B\	7	.	8b\L	.	8dd\L	.	4B\	-lei-	4dd\	-lei-	.	.	.
.	.	.	8b\	.	8dd\	.	.	.	.	.	.	.	.
4r	.	.	8cc#\	.	8ee\	.	4r	.	4r	.	.	.	.
.	.	.	8dd\	.	8ff#\	.	.	.	.	.	.	.	.
4E\	7	.	8ee\	.	8gg\	.	4E\	.	4b\	.	.	.	.
.	.	.	8g\J	.	8b\J	.	.	.	.	.	.	.	.
=113	=113	=113	=113	=113	=113	=113	=113	=113	=113	=113	=113	=113	=113
!	!	!	!LO:TX:a:t=P:problem=mixed beam	!	!	!	!	!	!	!	!	!	!
4A\	7	.	8a\L	.	8cc#\L	.	4A\	.	4cc#\	.	.	.	.
.	.	.	8a\	.	8cc#\	.	.	.	.	.	.	.	.
4r	.	.	8b\	.	8dd\	.	4r	.	4r	.	.	.	.
.	.	.	8cc#\	.	8ee\	.	.	.	.	.	.	.	.
4D/	.	.	8dd\	.	8ff#\	.	4D\	.	4a\	.	.	.	.
!	!	!	!	!	!	!	!LO:TX:t=P:problem=wykreślony takt	!	!	!	!	!	!
.	.	.	8f#/J	.	8a\J	.	.	.	.	.	.	.	.
!LO:LB:g=original	!	!	!	!	!	!	!LO:LB:g=original	!	!	!	!	!	!
=114	=114	=114	=114	=114	=114	=114	=114	=114	=114	=114	=114	=114	=114
8G\L	.	.	4g/	.	4b\	.	8G\L	.	4b\	.	.	.	.
8E\	.	.	.	.	.	.	8E\	.	.	.	.	.	.
8F#\	.	.	[2ee\	.	2gg\	.	8F#\	.	[<2gg\	.	.	.	.
8E\	.	.	.	.	.	.	8E\	.	.	.	.	.	.
8F#\	.	.	.	.	.	.	8F#\	.	.	.	.	.	.
8G\J	.	.	.	.	.	.	8G\J	.	.	.	.	.	.
=115	=115	=115	=115	=115	=115	=115	=115	=115	=115	=115	=115	=115	=115
2A\	7_	.	8ee\L]	.	8gg\L	.	2A\	.	8gg\L]	.	.	1.r	1.r
.	.	.	8cc#\	.	8ee\	.	.	.	8ee\	.	.	.	.
.	.	.	8dd\	.	8ff#\	.	.	.	8ff#\	.	.	.	.
.	.	.	8cc#\	.	8ee\	.	.	.	8ee\	.	.	.	.
4G\	.	.	8dd\	.	8ff#\	.	4G\	.	8ff#\	.	.	.	.
.	.	.	8ee\J	.	8gg\J	.	.	.	8gg\J	.	.	.	.
!	!	!	!LO:LB:g=original	!	!	!	!	!	!	!	!	!	!
=116	=116	=116	=116	=116	=116	=116	=116	=116	=116	=116	=116	=116	=116
!	!	!	!	!	!LO:TUP:a:problem=klamra łukowa,kropka zamiast numeru	!	!	!	!	!	!	!	!
8F#\L	6	.	4dd\	.	12aa\L	.	8F#\L	.	4ff#\	.	.	.	.
.	.	.	.	.	12dd\	.	.	.	.	.	.	.	.
8G\J	.	.	.	.	.	.	8G\J	.	.	.	.	.	.
.	.	.	.	.	12ee\J	.	.	.	.	.	.	.	.
.	.	.	8qqdd/	.	.	.	.	.	.	.	.	.	.
4A\	6 4	.	2cc#\	.	2ee\	.	4A\	.	2ee\	.	.	.	.
.	x 3	.	.	.	.	.	.	.	.	.	.	.	.
4AA/	.	.	.	.	.	.	4AA/	.	.	.	.	.	.
=117	=117	=117	=117	=117	=117	=117	=117	=117	=117	=117	=117	=117	=117
!	!	!	!	!LO:DY:a:t=for	!	!LO:DY:a:t=f&colon;	!	!	!	!	!	!	!
4D/	.	.	4dd\	f	4dd\	f	4D\	-son	4dd\	-son	.	4r	4r
4d\	.	.	4dd\	.	4ff# 4a 4d/	.	4r	.	4r	.	.	8a/L	8a/L
.	.	.	.	.	.	.	.	.	.	.	.	8a/	8a/
4A\	.	.	4cc#\	.	4ee 4cc# 4a/	.	4A\	e-	4ee\	e-	.	8a/	8a/
.	.	.	.	.	.	.	.	.	.	.	.	8a/J	8a/J
=118	=118	=118	=118	=118	=118	=118	=118	=118	=118	=118	=118	=118	=118
4D\	.	.	4dd\	.	4ff# 4a 4d/	.	4D\	-lei-	4ff#\	-lei-	.	4d/	4f#/
4D\	.	.	4dd\	.	4ff# 4a 4d/	.	4D\	-son	4ff#\	-son	.	4d/	4f#/
4r	.	.	4r	.	4r	.	4r	.	4r	.	.	4r	4r
==;	==	==	==;	==	==;	==	==;	==	==;	==	==	==;	==;
*-	*-	*-	*-	*-	*-	*-	*-	*-	*-	*-	*-	*-	*-
!!!system-decoration: [(g1)][(g2)][(g3)]s7
!!!RDF**kern: < = below
!!!RDF**kern: | = vertical stroke
!!!ENC: Berenika Jozajtis
!!!END: 2020-12-10
!!!ENC: Marta Lawrence
!!!END: 2022-03-23
